bakery/img/contacts/phone.svg

<svg width="31" height="31" viewBox="0 0 31 31" fill="none" xmlns="http://www.w3.org/2000/svg">
<path d="M23.6363 20.3447L20.8502 17.5372C20.2953 16.9803 19.3763 16.9972 18.802 17.5761L17.3984 18.99C17.3097 18.9408 17.2179 18.8893 17.1214 18.8348C16.235 18.3399 15.0218 17.6617 13.7452 16.3744C12.4648 15.0845 11.791 13.8603 11.2983 12.9666C11.2463 12.872 11.1965 12.7807 11.1474 12.694L12.0894 11.7462L12.5526 11.279C13.1277 10.6993 13.1436 9.77365 12.5899 9.21514L9.80382 6.40735C9.25017 5.84962 8.33076 5.86654 7.7556 6.4462L6.97038 7.2419L6.99184 7.26336C6.72854 7.60186 6.50852 7.99227 6.34479 8.41328C6.19386 8.81403 6.09989 9.19645 6.05693 9.57965C5.68904 12.6526 7.08275 15.461 10.8651 19.272C16.0934 24.5394 20.3068 24.1415 20.4886 24.1221C20.8844 24.0744 21.2638 23.9791 21.6494 23.8282C22.0636 23.6652 22.4508 23.4438 22.7866 23.1791L22.8037 23.1945L23.5992 22.4096C24.1732 21.8301 24.1897 20.9041 23.6363 20.3447Z" fill="#412D22"/>
</svg>

<svg width="31" height="31" fill="none" xmlns="http://www.w3.org/2000/svg"><path d="M23.636 20.345l-2.786-2.808c-.555-.557-1.474-.54-2.048.04l-1.404 1.413-.277-.155c-.886-.495-2.1-1.173-3.376-2.46-1.28-1.29-1.954-2.515-2.447-3.408-.052-.095-.101-.186-.15-.273l.941-.948.464-.467c.575-.58.59-1.505.037-2.064L9.804 6.407c-.554-.557-1.473-.54-2.048.04l-.786.795.022.021a4.584 4.584 0 00-.647 1.15 4.794 4.794 0 00-.288 1.167c-.368 3.073 1.026 5.881 4.808 9.692 5.228 5.267 9.442 4.87 9.624 4.85a4.68 4.68 0 001.16-.294 4.517 4.517 0 001.138-.649l.017.016.795-.785c.574-.58.59-1.506.037-2.065z" fill="#412D22"/></svg>
